/* XPM */
static const char *neobif_icon_xpm[] = {
/* columns rows colors chars-per-pixel */
"48 48 147 2 ",
"   c None",
".  c #000F26",
"X  c #001227",
"o  c #01142C",
"O  c #051A2D",
"+  c #0A1D2F",
"@  c #001632",
"#  c #021A34",
"$  c #051D39",
"%  c #15222D",
"&  c #0D2134",
"*  c #07213C",
"=  c #09233B",
"-  c #132535",
";  c #172836",
":  c #192934",
">  c #132639",
",  c #243135",
"<  c #3B4137",
"1  c #404437",
"2  c #5A5536",
"3  c #665E39",
"4  c #726538",
"5  c #001E50",
"6  c #0B2542",
"7  c #0E2942",
"8  c #07284E",
"9  c #03244F",
"0  c #122C45",
"q  c #112F49",
"w  c #1E3245",
"e  c #16324C",
"r  c #19344E",
"t  c #193652",
"y  c #1A3956",
"u  c #1C3D5B",
"i  c #223547",
"p  c #243648",
"a  c #26394B",
"s  c #2D3F4D",
"d  c #1E405F",
"f  c #39474A",
"g  c #2F4254",
"h  c #20415F",
"j  c #394A5A",
"k  c #344658",
"l  c #1F4261",
"z  c #135E7E",
"x  c #204565",
"c  c #214768",
"v  c #234A6C",
"b  c #3D5265",
"n  c #254E71",
"m  c #265175",
"M  c #285377",
"N  c #275379",
"B  c #28557B",
"V  c #2A587E",
"C  c #585B48",
"Z  c #716A45",
"A  c #7A7045",
"S  c #4B5C6C",
"D  c #576777",
"F  c #586877",
"G  c #60707E",
"H  c #947D3A",
"J  c #907E43",
"K  c #A2873B",
"L  c #A98B3B",
"P  c #B6953E",
"I  c #B9973E",
"U  c #C69F3E",
"Y  c #CBA33C",
"T  c #D2A73D",
"R  c #D6AA3D",
"E  c #DDAE3C",
"W  c #E4B23C",
"Q  c #EAB63C",
"!  c #EEB93C",
"~  c #F2BC3C",
"^  c #FBC13B",
"/  c #A88D41",
"(  c #B19341",
")  c #2A5980",
"_  c #166180",
"`  c #226886",
"'  c #256A88",
"]  c #286C8A",
"[  c #6C7B89",
"{  c #66869B",
"}  c #578CA4",
"|  c #5C90A7",
" . c #5E91A8",
".. c #6E8DA1",
"X. c #718FA3",
"o. c #7694A7",
"O. c #7D99AC",
"+. c #7996A8",
"@. c #6E9CB1",
"#. c #729EB3",
"$. c #819DAF",
"%. c #86A0B1",
"&. c #86ACBE",
"*. c #98AFBE",
"=. c #96ADBD",
"-. c #A3ADB7",
";. c #A6B1BB",
":. c #9BB1C0",
">. c #A9BDCA",
",. c #A4B8C4",
"<. c #B1BBC3",
"1. c #B6C0C9",
"2. c #BBC5CE",
"3. c #BAC4CD",
"4. c #BCC5CD",
"5. c #B8CDD8",
"6. c #C3CDD5",
"7. c #C1CFDA",
"8. c #C8D5DD",
"9. c #C9D8E2",
"0. c #D5DFE8",
"q. c #DBE4EB",
"w. c #DFE8EE",
"e. c #DFE9F0",
"r. c #E0E8EF",
"t. c #E0E8EF",
"y. c #E6EDF3",
"u. c #E5ECF2",
"i. c #E6EDF4",
"p. c #E6EEF4",
"a. c #E4ECF2",
"s. c #E8EFF5",
"d. c #EAF1F6",
"f. c #EAF0F6",
"g. c #E9F0F6",
"h. c #EBF1F6",
"j. c #EEF3F8",
"k. c #EFF3F8",
"l. c #ECF3F9",
"z. c #EEF4FA",
"x. c #ECF3F9",
"c. c #F5F7FB",
"v. c #F2F6FB",
"b. c #F5FBFF",
"n. c #F4FAFF",
"m. c #F4FAFE",
"M. c #FAFEFF",
/* pixels */
"                                                                                                ",
"                                                                                                ",
"              N N m m m m m m n n n n n n n n n v v v v v v v v v v c c c c c c c               ",
"          B ) V B B B B B B N N N N m m m m m m m n n n n n n n n v v v v v v v v v c           ",
"        B B m m m m m n n n n n n n n n v v v v v v v v v v v c c c c c c c c c c l v c         ",
"      N B m m m m m m m m n n n n n n v v v v v v v v v v v v v c c c c c c c c c c l v l       ",
"      ) m m m m m m m m n n n n n n v v v v v v v v v v v v v v c c c c c c c c c x l l c       ",
"    m V m m m m m m m n n n n n n v v v v v v v v v v v v v v c c c c c c c c x c l l l c l     ",
"    m B m m m m m n n n n n n v v v v v v v v v v v v v v v c c c c c c c x x x l l l l c l     ",
"    m B m m m m m m m m m m m m n n n n n n v v v v v v v c c c c c c c x x x l l l l l c d     ",
"    m B m m m m v d l d d d d d u d u u u u l v v v v v c c c c c c c c x x l l l l l l c d     ",
"    m B n m n m t + # O O O O O O O O O + O O u v c v c c c c c c c c c x l l l l l l l x d     ",
"    m B n m n M e w 1.2.3.3.3.3.3.3.3.3.3.6.S X h v c c c c c c c c x l l l l l l l l u x u     ",
"    m B n n n M e p p.v.l.z.z.z.z.z.z.z.l.v.a.k X x v v v v c c c c c c c c c l l l d u l u     ",
"    m N n n n M e p z.b.n.n.n.n.n.n.b.b.n.m.M.l.j & r e e e e e e e e e e e q y l d d u l u     ",
"    n N n n n m e > D F D D D D D D D F D F D G b o O O O O O O O O O O O O + 0 l d u u l u     ",
"    n N n n n m e & w i i i i i i i i i i i i w a g g g g g g g g g g g g g - 0 l u u u l u     ",
"    n N n n n m q i a.l.d.d.d.d.d.d.d.d.d.d.d.d.s.y.y.y.y.y.y.y.y.y.p.y.s.w.p 7 x u u u l u     ",
"    n m n n v m q i r.d.p.p.y.p.p.p.p.p.p.p.p.p.p.p.p.p.p.p.p.p.p.y.p.p.d.r.p 7 x u u u l u     ",
"    n m n v v m q i r.d.y.x.v.l.l.l.l.l.l.l.l.l.l.l.l.l.l.l.l.l.l.v.x.y.d.r.p 7 l u u u l u     ",
"    n m v v v m q i r.p.l.5.}  .| | | | | | | | | | | | | | | |  .} 5.l.p.r.p 7 l u u u l u     ",
"    v m v v v n q i r.p.c.&._ ] ' ' ' ' ' ' ' ' ' ' ' ' ' ' ' ' ] _ &.c.p.r.p 7 x u u u u u     ",
"    v m v v v n q i r.p.c.&.z ' ` ` ` ` ` ` ` ` ` ` ` ` ` ` ` ` ' z &.c.p.r.p 7 l u u u u u     ",
"    v m v v v n q i r.s.x.9.@.#.#.#.#.#.#.#.#.#.#.#.#.#.#.#.#.#.#.@.8.x.p.r.p 7 d u u u u y     ",
"    v m v v v n q i r.d.y.x.n.c.c.c.c.v.c.c.v.c.c.c.c.c.c.v.v.v.v.c.x.y.d.r.p 7 d u u u u y     ",
"    v n v v v n q i r.d.y.s.a.a.a.a.a.a.a.a.a.a.a.a.a.a.a.y.y.y.y.y.y.y.d.r.p 7 u u u y u y     ",
"    v n v v v n q i r.s.l.7.$.%.%.%.%.%.%.%.%.%.%.%.%.%.$.=.y.s.p.y.y.a.p.w.p 7 u u y y u y     ",
"    v n v v v v q i r.p.z.>.{ X...........................o.w.s.a.d.m.m.n.y.p 7 u y y y u y     ",
"    v n v v v v 0 i r.s.d.9.*.:.:.:.:.:.:.:.:.:.:.:.:.:.*.>.a.d.b.q.1.-.<.8.a 7 u y y y u y     ",
"    v n v v v v 0 i r.d.y.d.v.v.v.z.z.z.v.v.v.v.v.v.v.v.v.l.m.q.[ 0 o o o * & 0 u y y y u y     ",
"    v n v v c v 0 i r.d.y.y.q.q.q.q.q.q.q.q.q.q.q.q.q.q.q.e.6.a . 2 K I L 4 ; $ r u y y u y     ",
"    v n c v c v 0 i r.p.l.5.o.O.O.O.O.O.O.O.O.O.O.O.O.O.O.+.0 % I ~ ! Q Q ~ E < # t y y y y     ",
"    v n c c c v 0 i r.p.z.>.{ X.........................+.b O P ~ E E E W Y ( E , = y y y y     ",
"    v v c c c v 0 i r.s.d.0.>.>.>.>.>.>.>.>.>.>.>.>.>.>.,.6 2 ~ E W E W W f e ~ H @ r y y t     ",
"    v v c c c v 0 i w.s.y.d.z.z.z.z.z.z.z.z.z.z.z.z.x.M.2.@ K ~ R R Q Q C 9 / ! Y - 0 y y t     ",
"    c v c c c v 0 p p.z.l.l.l.l.l.l.l.l.l.l.l.l.l.l.p.M.;.X P ^ A q U A 5 J ~ W E , 7 y y t     ",
"    c v c c c v q & j j j j j j j j j j j j j j j j j j s # L ~ U a q 8 Z ~ E W T : 7 y y t     ",
"    c v c c c c y 0 = = = = = = = = = = = = = = = = = * = # 4 ~ Q T s C Q W E ! L # e t y t     ",
"    c v c c c c c c c c c c c c c x x x x x x x x d d d h 7 : T Q W E W W E W ! 1 $ t t y t     ",
"    c v c c c c l l l l l l l d d d u u u u u u u u u u u y # < E ~ Q W W ! ! 3 @ e y t y t     ",
"    c v c c c c l l l l l l l d d u u u u u u u u u u u y u r # , H Y E T L 1 @ 0 t t t y r     ",
"      v l c c l l l l l l l d d u u u u u u u u u u u y y y u t = # - , : # $ e t t t t y       ",
"      l v l l l l l l l l d d u u u u u u u u u u u y y y y y y y r 0 7 7 e t y t t t t e       ",
"        c v l l l l l l u u u u u u u u u u u u u y y y y y y y y y y y y t t t t t t t         ",
"          c c c c c c x x l l l l l l l l u u u u u u u u u u y y y y y y y y y y y t           ",
"              x l d d d u u u u u u u u u u u y y y y y y y y y y t t t t t t t t               ",
"                                                                                                ",
"                                                                                                "
};
